images/arrow-top.svg

<svg width="50" height="50" fill="none" xmlns="http://www.w3.org/2000/svg"><path stroke="#fff" d="M.5.5h49v49H.5z"/><path d="M16 22.187l1.44 1.44 6.78-6.783v20.063h2V16.844L33 23.626l1.44-1.44-8.5-8.5-.72-.686-.72.687-8.5 8.5z" fill="#fff"/></svg>

<svg width="50" height="50" viewBox="0 0 50 50" fill="none" xmlns="http://www.w3.org/2000/svg">
<rect x="0.5" y="0.5" width="49" height="49" stroke="white"/>
<path d="M16 22.187L17.44 23.627L24.22 16.844L24.22 36.907L26.22 36.907L26.22 16.844L33 23.626L34.44 22.186L25.94 13.686L25.22 13L24.5 13.687L16 22.187V22.187Z" fill="white"/>
</svg>
